src/assets/duotone/Instagram.svg

<svg width="24" height="24" viewBox="0 0 24 24"  xmlns="http://www.w3.org/2000/svg">
<path opacity="0.4" d="M16.19 2H7.81C4.17 2 2 4.17 2 7.81V16.18C2 19.83 4.17 22 7.81 22H16.18C19.82 22 21.99 19.83 21.99 16.19V7.81C22 4.17 19.83 2 16.19 2Z" />
<path d="M12.0001 15.8801C14.143 15.8801 15.8801 14.143 15.8801 12.0001C15.8801 9.85725 14.143 8.12012 12.0001 8.12012C9.85725 8.12012 8.12012 9.85725 8.12012 12.0001C8.12012 14.143 9.85725 15.8801 12.0001 15.8801Z" />
<path d="M17 7.4999C16.73 7.4999 16.48 7.3999 16.29 7.2099C16.2 7.1099 16.13 6.9999 16.08 6.8799C16.03 6.7599 16 6.6299 16 6.4999C16 6.3699 16.03 6.2399 16.08 6.1199C16.13 5.9899 16.2 5.8899 16.29 5.7899C16.52 5.5599 16.87 5.4499 17.19 5.5199C17.26 5.5299 17.32 5.5499 17.38 5.5799C17.44 5.5999 17.5 5.6299 17.56 5.6699C17.61 5.6999 17.66 5.7499 17.71 5.7899C17.8 5.8899 17.87 5.9899 17.92 6.1199C17.97 6.2399 18 6.3699 18 6.4999C18 6.6299 17.97 6.7599 17.92 6.8799C17.87 6.9999 17.8 7.1099 17.71 7.2099C17.61 7.2999 17.5 7.3699 17.38 7.4199C17.26 7.4699 17.13 7.4999 17 7.4999Z" />
</svg>

<?xml version="1.0" encoding="UTF-8"?>
<svg width="24" height="24" viewBox="0 0 24 24" xmlns="http://www.w3.org/2000/svg">
 <path d="M16.19 2H7.81C4.17 2 2 4.17 2 7.81V16.18C2 19.83 4.17 22 7.81 22H16.18C19.82 22 21.99 19.83 21.99 16.19V7.81C22 4.17 19.83 2 16.19 2Z" opacity=".4"/>
 <path d="m12 15.88c2.1429 0 3.88-1.7371 3.88-3.88 0-2.1428-1.7371-3.88-3.88-3.88-2.1428 0-3.88 1.7371-3.88 3.88 0 2.1429 1.7371 3.88 3.88 3.88z"/>
 <path d="m17 7.4999c-0.27 0-0.52-0.1-0.71-0.29-0.09-0.1-0.16-0.21-0.21-0.33s-0.08-0.25-0.08-0.38 0.03-0.26 0.08-0.38c0.05-0.13 0.12-0.23 0.21-0.33 0.23-0.23 0.58-0.34 0.9-0.27 0.07 0.01 0.13 0.03 0.19 0.06 0.06 0.02 0.12 0.05 0.18 0.09 0.05 0.03 0.1 0.08 0.15 0.12 0.09 0.1 0.16 0.2 0.21 0.33 0.05 0.12 0.08 0.25 0.08 0.38s-0.03 0.26-0.08 0.38-0.12 0.23-0.21 0.33c-0.1 0.09-0.21 0.16-0.33 0.21s-0.25 0.08-0.38 0.08z"/>
</svg>
